X:281
T: WOHL KOMMT DER MAI MIT MANCHERLEI
N: Z0279
O: Europa, Mitteleuropa, Deutschland
R: Lyrisches Lied, Romanze
M: 3/8
L: 1/16
K: C
G2 | E3DC2 | D4
G,2 | F3ED2 | E4
C2 | E3DC2 | F4
D2 | E3DC2 | F4
D2 | E3FG2 | G3FE2 | D4D2 | D4z2 |
G,4G,A, | B,2B,CDE | F4z2 |
E3FG2 | E3DC2 | D2G,2B,2 | C4

@@@ Tune index: 10039
